assets/svg/list.svg

<svg width="55" height="70" viewBox="0 0 55 70" fill="none" xmlns="http://www.w3.org/2000/svg">
<path d="M47.9965 9.17132H41.6636V6.33824C41.6636 5.42163 40.6638 5.00503 39.7472 5.00503H34.8309C33.6644 1.67194 30.7479 0.0053953 27.4148 0.0053953C24.1184 -0.118531 21.1201 1.90273 19.9987 5.00503H15.1657C14.2491 5.00503 13.3325 5.42163 13.3325 6.33824V9.17132H6.99952C3.24665 9.21135 0.1764 12.1719 0 15.9208V63.6672C0 67.3336 3.33309 70 6.99952 70H47.9965C51.6629 70 54.996 67.3336 54.996 63.6672V15.9209C54.8196 12.1719 51.7494 9.21135 47.9965 9.17132ZM16.6655 8.33812H21.2485C22.0485 8.24051 22.6911 7.63189 22.8318 6.83825C23.3253 4.68924 25.2106 3.14662 27.4148 3.08856C29.5986 3.15475 31.4556 4.70216 31.9145 6.83825C32.0639 7.65932 32.7489 8.27576 33.581 8.33812H38.3307V15.0043H16.6655V8.33812ZM51.6629 63.6673C51.6629 65.5005 49.8297 66.6671 47.9965 66.6671H6.99952C5.16631 66.6671 3.33309 65.5005 3.33309 63.6673V15.9209C3.50311 14.0127 5.08401 12.5395 6.99952 12.5046H13.3324V16.7543C13.4204 17.6879 14.229 18.3864 15.1656 18.3376H39.747C40.7008 18.3897 41.5348 17.7009 41.6635 16.7543V12.5044H47.9963C49.9117 12.5395 51.4927 14.0126 51.6628 15.9208V63.6673H51.6629Z" fill="#6ABF16"/>
<path d="M21.0818 37.2527C20.4568 36.5938 19.4191 36.5566 18.7486 37.1694L13.4156 42.2523L11.1658 39.9191C10.5408 39.2602 9.50309 39.2232 8.83258 39.8358C8.18711 40.5121 8.18711 41.576 8.83258 42.2523L12.2489 45.7521C12.5446 46.0832 12.9718 46.2663 13.4155 46.2521C13.855 46.2459 14.2743 46.0661 14.582 45.7521L21.0815 39.5859C21.7259 38.9948 21.7689 37.9932 21.1777 37.349C21.1474 37.3154 21.1153 37.2833 21.0818 37.2527Z" fill="#6ABF16"/>
<path d="M44.9967 40.8357H25.8315C24.9111 40.8357 24.165 41.5818 24.165 42.5022C24.165 43.4227 24.9111 44.1688 25.8315 44.1688H44.9967C45.9172 44.1688 46.6633 43.4227 46.6633 42.5022C46.6633 41.5818 45.9172 40.8357 44.9967 40.8357Z" fill="#6ABF16"/>
<path d="M21.0818 23.9203C20.4568 23.2614 19.4191 23.2243 18.7486 23.837L13.4156 28.9199L11.1658 26.5867C10.5408 25.9278 9.50309 25.8907 8.83258 26.5035C8.18711 27.1797 8.18711 28.2437 8.83258 28.9199L12.2489 32.4197C12.5446 32.7508 12.9718 32.9339 13.4155 32.9197C13.855 32.9135 14.2743 32.7337 14.582 32.4197L21.0815 26.2535C21.7259 25.6625 21.7689 24.6608 21.1777 24.0166C21.1474 23.983 21.1153 23.9509 21.0818 23.9203Z" fill="#6ABF16"/>
<path d="M44.9967 27.5033H25.8315C24.9111 27.5033 24.165 28.2494 24.165 29.1699C24.165 30.0903 24.9111 30.8364 25.8315 30.8364H44.9967C45.9172 30.8364 46.6633 30.0903 46.6633 29.1699C46.6633 28.2494 45.9172 27.5033 44.9967 27.5033Z" fill="#6ABF16"/>
<path d="M21.0818 50.5849C20.4568 49.926 19.4191 49.889 18.7486 50.5016L13.4156 55.5845L11.1658 53.2513C10.5408 52.5924 9.50309 52.5554 8.83258 53.168C8.18711 53.8443 8.18711 54.9083 8.83258 55.5845L12.2489 59.0843C12.5446 59.4154 12.9718 59.5985 13.4155 59.5843C13.855 59.5781 14.2743 59.3983 14.582 59.0843L21.0815 52.9181C21.7259 52.327 21.7689 51.3254 21.1777 50.6812C21.1474 50.6477 21.1153 50.6157 21.0818 50.5849Z" fill="#6ABF16"/>
<path d="M44.9967 54.1681H25.8315C24.9111 54.1681 24.165 54.9142 24.165 55.8346C24.165 56.755 24.9111 57.5011 25.8315 57.5011H44.9967C45.9172 57.5011 46.6633 56.755 46.6633 55.8346C46.6633 54.9142 45.9172 54.1681 44.9967 54.1681Z" fill="#6ABF16"/>
</svg>

<svg width="55" height="70" fill="none" xmlns="http://www.w3.org/2000/svg"><path d="M47.996 9.171h-6.332V6.338c0-.916-1-1.333-1.917-1.333h-4.916c-1.167-3.333-4.083-5-7.416-5a7.583 7.583 0 00-7.416 5h-4.833c-.917 0-1.834.417-1.834 1.333v2.833H7c-3.753.04-6.824 3-7 6.75v47.746C0 67.334 3.333 70 7 70h40.996c3.667 0 7-2.666 7-6.333V15.921a7.083 7.083 0 00-7-6.75zm-31.33-.833h4.582a1.834 1.834 0 001.584-1.5 4.833 4.833 0 014.583-3.75 4.75 4.75 0 014.5 3.75c.149.821.834 1.438 1.666 1.5h4.75v6.666H16.665V8.338zm34.997 55.33c0 1.833-1.833 3-3.666 3H7c-1.834 0-3.667-1.168-3.667-3V15.92A3.75 3.75 0 017 12.505h6.332v4.25a1.75 1.75 0 001.834 1.583h24.581a1.833 1.833 0 001.916-1.584v-4.25h6.333a3.75 3.75 0 013.667 3.417v47.746z" fill="#6ABF16"/><path d="M21.082 37.253a1.666 1.666 0 00-2.333-.084l-5.333 5.083-2.25-2.333a1.667 1.667 0 00-2.333-.083 1.75 1.75 0 000 2.416l3.416 3.5a1.5 1.5 0 001.166.5c.44-.006.86-.186 1.167-.5l6.5-6.166a1.583 1.583 0 000-2.333zM44.997 40.836H25.83a1.666 1.666 0 100 3.333h19.166a1.667 1.667 0 100-3.333zM21.082 23.92a1.667 1.667 0 00-2.333-.083l-5.333 5.083-2.25-2.333a1.666 1.666 0 00-2.333-.084 1.75 1.75 0 000 2.417l3.416 3.5a1.5 1.5 0 001.166.5c.44-.007.86-.186 1.167-.5l6.5-6.167a1.583 1.583 0 000-2.333zM44.997 27.503H25.83a1.666 1.666 0 100 3.333h19.166a1.666 1.666 0 100-3.333zM21.082 50.585a1.667 1.667 0 00-2.333-.083l-5.333 5.082-2.25-2.333a1.667 1.667 0 00-2.333-.083 1.75 1.75 0 000 2.416l3.416 3.5a1.5 1.5 0 001.166.5c.44-.006.86-.186 1.167-.5l6.5-6.166a1.583 1.583 0 000-2.333zM44.997 54.168H25.83a1.666 1.666 0 100 3.333h19.166a1.666 1.666 0 100-3.333z" fill="#6ABF16"/></svg>
